X:1
T:The Valley of Blessing
T:The Valley of Blessing
T:William Gustavus Fischer
T:Sarah Ann Turner Wittenmyer, 1869
T:Public Domain Courtesy of the Cyber Hymnal™
T:Public Domain Courtesy of the Cyber Hymnal™
C:William Gustavus Fischer
Z:Public Domain
Z:Courtesy of the Cyber Hymnal™
%%score ( 1 2 ) ( 3 4 )
L:1/8
M:3/4
K:G
V:1 treble 
V:2 treble 
V:3 bass 
V:4 bass 
V:1
 D[DG] | [GB]3 [DA] [DG]2 | [EA]3 [EG] [CE]2 | [B,D]2 [DG]2 [DA]2 | [DG]4 (GB) | [Gd]3 [Gc] [GB]2 | %6
w: 1.~I have|en- tered the|val- ley of|bless- ing so|sweet, And *|Je- sus a-|
w: 2.~There is|peace in the|val- ley of|bless- ing so|sweet, And *|plen- ty the|
w: 3.~There is|love in the|val- ley of|bless- ing so|sweet, Such~as *|none but the|
w: 4.~There’s a|song in the|val- ley of|bless- ing so|sweet, And *|an- gels would|
 [Ge]2 [Gd]2 [GB]2 | [FA]6 | z4 D[DG] | [GB]3 [DA] [DG]2 | [DG]2 [DA]2 [GB]2 | [Gc]3 [Gd] [Ge]2 | %12
w: bides with me|there;|And His|Spir- it and|blood make my|cleans- ing com-|
w: land doth im-|part;|And there’s|rest for the|wear- y, worn|trav- el- er’s|
w: blood- washed may|feel,|Wh- en|Heav- en comes|down re- deemed|spir- its to|
w: fain join the|strain,|As with|rap- tur- ous|prais- es we|bow at His|
 [Gd]4 ([GB][DG]) | [CE]2 [EG]2 [CE]2 | [B,D]2 [DG]2 [DA]2 | [DG]6 ||"^Refrain" z4 G2 | %17
w: plete, And~His *|per- fect love|cast- eth out|fear.||
w: feet, And *|joy for the|sor- row- ing|heart.||
w: greet, And *|Christ sets His|cov- e- nant|seal.||
w: feet, Crying, *|“Wor- thy the|Lamb that was|slain!”||
 [FA]3 [FA] [FA]2 | [FA]2 [Fd]2 [Fc]2 | [GB] [DG]3 [EG]2 | [DG]2 z2 G2 | [Gc]3 [Gd] [Ge]2 | %22
w: |||||
w: |||||
w: |||||
w: |||||
 [Gd]3 [GB] G2 | [FA]6 | z4 D[DG] | [GB]3 [GB] [GB]2 | [GB]2 [DA]2 [DG]2 | [EG]2 [CE]4 | z4 [CE]2 | %29
w: |||||||
w: |||||||
w: |||||||
w: |||||||
 [B,D]3 [DG] [DG]2 | [DF]3 [DG] [DA]2 | [DG]4 |] %32
w: |||
w: |||
w: |||
w: |||
V:2
 D x | x6 | x6 | x6 | x4 G2 | x6 | x6 | x6 | x4 D x | x6 | x6 | x6 | x6 | x6 | x6 | x6 || x4 G2 | %17
 x6 | x6 | x6 | x4 G2 | x6 | x4 G2 | x6 | x4 D x | x6 | x6 | x6 | x6 | x6 | x6 | x4 |] %32
V:3
 [G,B,][G,B,] | [G,D]3 [G,C] [G,B,]2 | [C,C]3 [C,C] [C,G,]2 | [D,G,]2 [D,B,]2 [D,C]2 | %4
w: ~ ~|~ ~ ~|~ ~ ~|~ ~ ~|
 [G,,B,]4 [G,B,]2 | [G,B,]3 [G,A,] G,2 | [G,C]2 [G,B,]2 [G,D]2 | [D,D]6 | z4 [G,B,][G,B,] | %9
w: ~ ~|~ ~ ~|~ ~ ~|~|~ ~|
 [G,D]3 [G,C] [G,B,]2 | [G,B,]2 [G,D]2 [G,D]2 | [E,C]3 [D,B,] [C,C]2 | [G,B,]4 ([G,D][B,,B,]) | %13
w: ~ ~ ~|~ ~ ~|~ ~ ~|~ ~ *|
 [C,G,]2 [C,C]2 [C,G,]2 | [D,G,]2 [D,B,]2 [D,C]2 | [G,,B,]6 || z4 [G,B,]2 | [D,D]3 [D,D] [D,D]2 | %18
w: ~ ~ ~|~ ~ ~|~|Oh,|come to this|
 [D,D]2 [D,A,]2 [D,D]2 | [G,D] [G,B,]3 [C,C]2 | [G,B,]2 z2 [G,B,]2 | [E,C]3 [D,B,] [C,C]2 | %22
w: val- ley of|bless- ing so|sweet, Where|Je- sus will|
 [G,B,]3 [G,D] [G,B,]2 | [D,D]6 | z4 [G,B,][G,B,] | [G,D]3 [G,D] [G,D]2 | [G,D]2 [G,C]2 [G,B,]2 | %27
w: full- ness be-|stow;|And be-|lieve, and re-|ceive, and con-|
 [C,C]2 [C,G,]4 | z4 [C,G,]2 | [D,G,]3 [D,B,] [D,B,]2 | [D,A,]3 [D,B,] [D,C]2 | [G,,B,]4 |] %32
w: fess Him,|That|all His sal-|va- tion may|know.|
V:4
 x2 | x6 | x6 | x6 | x6 | x4 G,2 | x6 | x6 | x6 | x6 | x6 | x6 | x6 | x6 | x6 | x6 || x6 | x6 | %18
 x6 | x6 | x6 | x6 | x6 | x6 | x6 | x6 | x6 | x6 | x6 | x6 | x6 | x4 |] %32

